X:1
T:Title
L:1/8
M:4/4
K:F
V:1 treble nm="Grand Piano"
V:1
 z4 z[Q:1/4=100] D D2 | F2 ED F2 ED | FE/D/ ED- DDED | D^C B,2 C2 DD | E2 F2 DD D2 | F2 ED F2 ED | %6
 FE/D/ ED- DDED | D^C B,2 C2 DD | E2 F2- FA A2 | BAAG G^FFA | AG G>F EGAG | GFFE FG/A/ GF | %12
 F>E D2 dccB | BA A2 EGFE | D4 z AAA | d2 dc cBBA | cB B2- BG G2 | c3 B BAAG | BA A2- AA A2 | %19
 d2 dc cBBA | cB B2- BG G2 | c3 B BAAG | BA A2- AA A2 | BAAG G^FFA | AG G>F EGAG | GFFE FG/A/ GF | %26
 FE D2 dccB | BA A2 EGFE | D6 z2 |] %29

